app/component-library/components/Icons/Icon/assets/security-key.svg

<svg width="24" height="24" viewBox="0 0 24 24" fill="none" xmlns="http://www.w3.org/2000/svg">
<path d="M18.8206 4.17014L13.3206 2.11014C12.7506 1.90014 11.8206 1.90014 11.2506 2.11014L5.75057 4.17014C4.69057 4.57014 3.83057 5.81014 3.83057 6.94014V15.0401C3.83057 15.8501 4.36057 16.9201 5.01057 17.4001L10.5106 21.5101C11.4806 22.2401 13.0706 22.2401 14.0406 21.5101L19.5406 17.4001C20.1906 16.9101 20.7206 15.8501 20.7206 15.0401V6.94014C20.7306 5.81014 19.8706 4.57014 18.8206 4.17014ZM13.0306 12.8701V15.5001C13.0306 15.9101 12.6906 16.2501 12.2806 16.2501C11.8706 16.2501 11.5306 15.9101 11.5306 15.5001V12.8701C10.5206 12.5501 9.78057 11.6101 9.78057 10.5001C9.78057 9.12014 10.9006 8.00014 12.2806 8.00014C13.6606 8.00014 14.7806 9.12014 14.7806 10.5001C14.7806 11.6201 14.0406 12.5501 13.0306 12.8701Z" fill="currentColor"/>
</svg>

<svg xmlns="http://www.w3.org/2000/svg" width="24" height="24" viewBox="0 0 24 24" fill="none"><path fill="currentColor" d="m18.82 4.17-5.5-2.06c-.57-.21-1.5-.21-2.07 0l-5.5 2.06c-1.06.4-1.92 1.64-1.92 2.77v8.1c0 .81.53 1.88 1.18 2.36l5.5 4.11c.97.73 2.56.73 3.53 0l5.5-4.11c.65-.49 1.18-1.55 1.18-2.36v-8.1c.01-1.13-.85-2.37-1.9-2.77Zm-5.79 8.7v2.63c0 .41-.34.75-.75.75s-.75-.34-.75-.75v-2.63a2.497 2.497 0 0 1-1.75-2.37 2.5 2.5 0 0 1 5 0c0 1.12-.74 2.05-1.75 2.37Z"/></svg>
